dist/img/svg/vk.svg

<svg width="12" height="12" viewBox="0 0 12 12" fill="none" xmlns="http://www.w3.org/2000/svg">
<path d="M2.63191 2.9616C2.96692 3.78891 3.39149 4.56892 3.95069 5.26915C4.02486 5.36234 4.11835 5.44518 4.21684 5.51263C4.3607 5.61143 4.49642 5.57671 4.55492 5.41215C4.61678 5.23946 4.67356 4.88948 4.67693 4.70814C4.68617 4.23431 4.67555 3.92378 4.65009 3.45053C4.63359 3.14742 4.52584 2.88127 4.07998 2.80094C3.94229 2.77603 3.9295 2.66269 4.01796 2.54963C4.20212 2.31425 4.45867 2.27674 4.73687 2.26189C5.18776 2.23754 5.64031 2.25741 6.09175 2.26189C6.27564 2.26358 6.46062 2.27839 6.64172 2.31787C6.87793 2.36937 7.00442 2.53506 7.04335 2.76566C7.0635 2.88461 7.07387 3.0069 7.07104 3.12726C7.0593 3.64447 7.03439 4.1614 7.0285 4.67833C7.02599 4.88123 7.0408 5.08919 7.0842 5.28679C7.14494 5.56217 7.33244 5.63131 7.52418 5.43233C7.76766 5.17962 7.98234 4.89525 8.18383 4.60643C8.54991 4.0811 8.82333 3.50457 9.05871 2.91013C9.18045 2.6034 9.27366 2.53678 9.60361 2.53595C10.2238 2.53454 10.844 2.53399 11.4642 2.53595C11.5742 2.5365 11.6892 2.54687 11.7931 2.57991C11.9616 2.63365 12.0285 2.77106 11.989 2.94544C11.8969 3.35406 11.6761 3.70137 11.4396 4.03527C11.0601 4.57095 10.6624 5.09377 10.2739 5.62327C10.2244 5.69072 10.1808 5.76265 10.1401 5.83568C9.99488 6.09821 10.005 6.24541 10.2168 6.46398C10.5541 6.81188 10.9151 7.13735 11.2417 7.49475C11.4791 7.75476 11.6988 8.03686 11.8868 8.3338C12.1247 8.70939 11.9778 9.06314 11.5334 9.12612C11.2538 9.16559 9.88804 9.12642 9.81746 9.12612C9.45028 9.12446 9.12843 8.9971 8.86924 8.74773C8.58098 8.47011 8.319 8.16559 8.04221 7.87592C7.95881 7.78859 7.8698 7.70492 7.77382 7.63186C7.54739 7.45917 7.32517 7.49751 7.21938 7.76341C7.12899 7.9918 7.05089 8.59155 7.04724 8.64277C7.02823 8.91061 6.85778 9.08133 6.55773 9.09783C5.69153 9.14486 4.85217 9.0483 4.07022 8.62934C3.40747 8.27445 2.87825 7.77264 2.41981 7.18744C1.69157 6.25792 1.11636 5.23618 0.591214 4.18444C0.564375 4.13067 0.0324763 2.99884 0.0181828 2.94537C-0.0293295 2.76637 0.0149928 2.59537 0.166241 2.5365C0.260529 2.49982 2.01422 2.53638 2.04339 2.53795C2.32322 2.5531 2.51404 2.67116 2.63191 2.9616Z" fill="white"/>
</svg>

<svg width="12" height="12" viewBox="0 0 12 12" fill="none" xmlns="http://www.w3.org/2000/svg"><path d="M2.632 2.962c.335.827.76 1.607 1.319 2.307.074.093.167.176.266.244.144.098.28.064.338-.1a2.89 2.89 0 00.122-.705c.01-.474-.001-.784-.027-1.257-.016-.304-.124-.57-.57-.65-.138-.025-.15-.138-.062-.251.184-.236.44-.273.719-.288.45-.024.903-.005 1.355 0 .184.002.369.016.55.056.236.051.362.217.401.448.02.119.03.24.028.361-.012.517-.037 1.034-.042 1.551-.003.203.012.411.055.609.06.275.248.344.44.145a6.74 6.74 0 00.66-.826c.366-.525.64-1.101.875-1.696.121-.307.215-.373.545-.374a384.4 384.4 0 011.86 0c.11 0 .225.01.33.044.168.054.234.191.195.365-.092.41-.313.756-.55 1.09-.379.536-.777 1.059-1.165 1.588-.05.068-.093.14-.134.213-.145.262-.135.41.077.628.337.348.698.673 1.025 1.03a6.1 6.1 0 01.645.84c.238.375.09.73-.354.792-.28.04-1.645 0-1.716 0a1.337 1.337 0 01-.948-.378c-.288-.278-.55-.582-.827-.872a2.31 2.31 0 00-.268-.244c-.227-.173-.449-.134-.555.131-.09.229-.168.829-.172.88-.019.268-.19.438-.49.455-.865.047-1.705-.05-2.487-.469-.663-.355-1.192-.856-1.65-1.442-.728-.93-1.304-1.95-1.829-3.003a55.168 55.168 0 01-.573-1.239c-.047-.179-.003-.35.148-.408.095-.037 1.848 0 1.877.001.28.015.471.133.589.424z" fill="#fff"/></svg>
